docs/.gitbook/assets/icon-logout-16@light.svg

<svg width="32" height="32" viewBox="0 0 16 16" fill="none" xmlns="http://www.w3.org/2000/svg">
<rect x="0" y="0" width="16" height="16" fill="#fff"/>
<path fill-rule="evenodd" clip-rule="evenodd" d="M3.75 2.5C3.05964 2.5 2.5 3.05964 2.5 3.75V12.25C2.5 12.9404 3.05964 13.5 3.75 13.5H4.25C4.66421 13.5 5 13.8358 5 14.25C5 14.6642 4.66421 15 4.25 15H3.75C2.23122 15 1 13.7688 1 12.25V3.75C1 2.23122 2.23122 1 3.75 1H4.25C4.66421 1 5 1.33579 5 1.75C5 2.16421 4.66421 2.5 4.25 2.5H3.75ZM10.2004 4.23966C10.4823 3.93613 10.9568 3.91855 11.2603 4.2004L14.7603 7.4504C14.9132 7.59231 15 7.79145 15 8C15 8.20855 14.9132 8.40769 14.7603 8.5496L11.2603 11.7996C10.9568 12.0814 10.4823 12.0639 10.2004 11.7603C9.91855 11.4568 9.93613 10.9823 10.2397 10.7004L12.3401 8.75H5.75C5.33579 8.75 5 8.41421 5 8C5 7.58579 5.33579 7.25 5.75 7.25H12.3401L10.2397 5.29959C9.93613 5.01774 9.91855 4.54319 10.2004 4.23966Z" fill="#000"/>
</svg>

<svg xmlns="http://www.w3.org/2000/svg" width="32" height="32" fill="none" viewBox="0 0 16 16"><path fill="#fff" d="M0 0h16v16H0z"/><path fill="#000" fill-rule="evenodd" d="M3.75 2.5c-.69 0-1.25.56-1.25 1.25v8.5c0 .69.56 1.25 1.25 1.25h.5a.75.75 0 0 1 0 1.5h-.5A2.75 2.75 0 0 1 1 12.25v-8.5A2.75 2.75 0 0 1 3.75 1h.5a.75.75 0 0 1 0 1.5zm6.45 1.74a.75.75 0 0 1 1.06-.04l3.5 3.25a.75.75 0 0 1 0 1.1l-3.5 3.25a.75.75 0 1 1-1.02-1.1l2.1-1.95H5.75a.75.75 0 0 1 0-1.5h6.59l-2.1-1.95a.75.75 0 0 1-.04-1.06" clip-rule="evenodd"/></svg>
